src/modules/landing/assets/code.svg

<svg width="27.79" height="24" viewBox="0 0 28 24" fill="#63666B" xmlns="http://www.w3.org/2000/svg">
<path d="M15.1867 -0.00012207L17.8 0.533211L12.8133 23.9999L10.2 23.4665L15.1867 -0.00012207ZM24.12 11.9999L19.3333 7.21321V3.43988L27.8933 11.9999L19.3333 20.5465V16.7732L24.12 11.9999ZM0.106659 11.9999L8.66666 3.43988V7.21321L3.87999 11.9999L8.66666 16.7732V20.5465L0.106659 11.9999Z"/>
</svg>

<svg width="27.79" height="24" viewBox="0 0 28 24" fill="#63666B" xmlns="http://www.w3.org/2000/svg"><path d="M15.187 0L17.8.533 12.813 24l-2.613-.534L15.187 0zm8.933 12l-4.787-4.787V3.44l8.56 8.56-8.56 8.547v-3.774L24.12 12zM.107 12l8.56-8.56v3.773L3.88 12l4.787 4.773v3.774L.107 12z"/></svg>
